X: 34215
T: Reel St Joseph
R: reel
M: 4/4
K: Dmajor
f2 fg fed=c|BG G2 g3 g|e2 ef edcB|A a4AgA|
f2 fg fed=c|BG G2 g3 g|e2 ef edcB|Agec d2 A2|
f2 fg fed=c|BG G2 g3 g|e2 ef edcB|Aa3 aAgA|
f2 fg fed=c|BG G2 g3 g|e2 ef edcB|Agec dABc|
|:defd cdec|defd Add=c|Bggf edcB|A a4 ABc|
defd cdec|defd Add=c|Bggf edcB|Agec D4:|

